X:1
T:Neill Gow. JMP.035
T:Neill Gow. JMP.035
T:Neil Gow
C:Neil Gow
L:1/8
Q:1/4=100
M:2/4
K:D
V:1 treble 
V:1
"^Key Gmaj in MS" f | ecae | fBBf | ecae | f3 a | a/g/f/e/ a>e | fBBf | a>fec | A3 :: E | A<AA<A | %11
 BEEB | A<AA<A | aefa | ea c/e/d/B/ | BFFf | afec |"^1" A3 :| %18

